vendor/shopware/storefront/Resources/app/storefront/dist/assets/icon/solid/arrow-large-double-down.svg

<svg xmlns="http://www.w3.org/2000/svg" width="16" height="16" viewBox="0 0 16 16">
  <path fill="#758CA3" fill-rule="evenodd" d="M2.70710678,1.29289322 L8,6.58578644 L13.2928932,1.29289322 C13.6834175,0.902368927 14.3165825,0.902368927 14.7071068,1.29289322 C15.0976311,1.68341751 15.0976311,2.31658249 14.7071068,2.70710678 L8.70710678,8.70710678 C8.31658249,9.09763107 7.68341751,9.09763107 7.29289322,8.70710678 L1.29289322,2.70710678 C0.902368927,2.31658249 0.902368927,1.68341751 1.29289322,1.29289322 C1.68341751,0.902368927 2.31658249,0.902368927 2.70710678,1.29289322 Z M2.70710678,8.29289322 L8,13.5857864 L13.2928932,8.29289322 C13.6834175,7.90236893 14.3165825,7.90236893 14.7071068,8.29289322 C15.0976311,8.68341751 15.0976311,9.31658249 14.7071068,9.70710678 L8.70710678,15.7071068 C8.31658249,16.0976311 7.68341751,16.0976311 7.29289322,15.7071068 L1.29289322,9.70710678 C0.902368927,9.31658249 0.902368927,8.68341751 1.29289322,8.29289322 C1.68341751,7.90236893 2.31658249,7.90236893 2.70710678,8.29289322 Z"/>
</svg>

<svg xmlns="http://www.w3.org/2000/svg" width="16" height="16" viewBox="0 0 16 16"><path fill="#758CA3" fill-rule="evenodd" d="M2.7071 1.2929 8 6.5858l5.2929-5.293c.3905-.3904 1.0237-.3904 1.4142 0 .3905.3906.3905 1.0238 0 1.4143l-6 6c-.3905.3905-1.0237.3905-1.4142 0l-6-6c-.3905-.3905-.3905-1.0237 0-1.4142.3905-.3905 1.0237-.3905 1.4142 0zm0 7L8 13.5858l5.2929-5.293c.3905-.3904 1.0237-.3904 1.4142 0 .3905.3906.3905 1.0238 0 1.4143l-6 6c-.3905.3905-1.0237.3905-1.4142 0l-6-6c-.3905-.3905-.3905-1.0237 0-1.4142.3905-.3905 1.0237-.3905 1.4142 0z"/></svg>
